Papirus/24x24/apps/tuxedo-webfai-creator.svg

<svg width="24" height="24" version="1.1" xmlns="http://www.w3.org/2000/svg">
 <rect x="4" y="8.5000057" width="14.000008" height="14.000008" ry=".96017736" style="opacity:.2"/>
 <rect x="4" y="8" width="14.000008" height="14.000008" ry=".96017742" style="fill:#c2352a"/>
 <path d="m11.2182 9.50557c-0.5213 0.08528-2.09615 1.57262-2.28191 2.15052 0 0.3279 2.03941 2.2748 2.39821 2.2748 0.1512 0 0.3088-0.0794 0.4002-0.156 0.1604-0.1347 0.2583-0.3914 0.2172-0.5689-0.023-0.0992-0.1833-0.2971-0.4549-0.5615l-0.4189-0.4081 0.3601 0.0333c1.4776 0.1368 2.761 1.1796 3.185 2.5869 0.1629 0.5406 0.1638 1.3505 0.0022 1.8865-0.4748 1.5746-1.9163 2.6142-3.6251 2.6142-1.99984 0-3.57259-1.3992-3.74881-3.3351-0.00573-0.4738-0.15777-0.7804-0.63202-0.7804-0.44346 0-0.58464 0.3397-0.61527 0.7022-0.03058 0.3623 0.11004 0.9921 0.29432 1.468 0.60544 1.5637 2.00588 2.708 3.72058 3.0397 0.2307 0.0446 0.6057 0.0483 0.9794 0.0483 0.3566 0 0.712-0.0017 0.94-0.043 3.4903-0.6328 5.1927-4.447 3.238-7.2537-0.823-1.1816-2.241-1.9888-3.6986-2.106l-0.3743-0.03 0.4104-0.4028c0.3-0.2945 0.4299-0.447 0.4442-0.5748 0.0437-0.38857-0.4594-0.630009-0.74-0.58412z" style="opacity:.2"/>
 <path d="m11.2182 9.0055704c-0.5213 0.08528-2.09615 1.5726196-2.28191 2.1505196 0 0.3279 2.03941 2.2748 2.39821 2.2748 0.1512 0 0.3088-0.0794 0.4002-0.156 0.1604-0.1347 0.2583-0.3914 0.2172-0.5689-0.023-0.0992-0.1833-0.2971-0.4549-0.5615l-0.4189-0.4081 0.3601 0.0333c1.4776 0.1368 2.761 1.1796 3.185 2.5869 0.1629 0.5406 0.1638 1.3505 0.0022 1.8865-0.4748 1.5746-1.9163 2.6142-3.6251 2.6142-1.99984 0-3.57259-1.3992-3.74881-3.3351-0.00573-0.4738-0.15777-0.7804-0.63202-0.7804-0.44346 0-0.58464 0.3397-0.61527 0.7022-0.03058 0.3623 0.11004 0.9921 0.29432 1.468 0.60544 1.5637 2.00588 2.708 3.72058 3.0397 0.2307 0.0446 0.6057 0.0483 0.9794 0.0483 0.3566 0 0.712-0.0017 0.94-0.043 3.4903-0.6328 5.1927-4.447 3.238-7.2537-0.823-1.1816-2.241-1.9888-3.6986-2.106l-0.3743-0.03 0.4104-0.4028c0.3-0.2945 0.4299-0.447 0.4442-0.5748 0.0437-0.38857-0.4594-0.6300091-0.74-0.5841196z" style="fill:#ececec"/>
 <rect x="7" y="2" width="8.0000048" height="6.0000038" style="fill:#b3b3b3"/>
 <path d="m9.00001 3h0.99999v2h-0.99999z" style="fill:#666666"/>
 <path d="m12 3h1v2h-1z" style="fill:#666666"/>
 <path d="m7.00001 2v0.5h7.99999v-0.5z" style="fill:#ffffff;opacity:.2"/>
 <path d="m4.96094 8.00001c-0.53194 0-0.96094 0.42899-0.96094 0.96093v0.5c0-0.53193 0.429-0.96093 0.96094-0.96093h12.07816c0.5319 0 0.9609 0.429 0.9609 0.96093v-0.5c0-0.53194-0.429-0.96093-0.9609-0.96093z" style="fill:#ffffff;opacity:.2"/>
 <rect x="9" y="3" width="1" height=".5" style="opacity:.2"/>
 <rect x="12" y="3" width="1" height=".5" style="opacity:.2"/>
</svg>

<svg xmlns="http://www.w3.org/2000/svg" width="24" height="24" version="1.1">
 <rect style="opacity:0.2" width="14" height="14" x="4" y="8.5" ry=".96"/>
 <rect style="fill:#b3b3b3" width="8" height="7" x="7" y="2"/>
 <rect style="fill:#c2352a" width="14" height="14" x="4" y="8" ry=".96"/>
 <path style="opacity:0.2" d="M 11.218,9.5056 C 10.697,9.5908 9.122,11.078 8.9363,11.656 8.9363,11.984 10.976,13.931 11.335,13.931 11.486,13.931 11.643,13.851 11.735,13.775 11.895,13.64 11.993,13.383 11.952,13.206 11.929,13.107 11.769,12.909 11.497,12.644 L 11.078,12.236 11.438,12.27 C 12.916,12.406 14.199,13.449 14.623,14.857 14.786,15.397 14.787,16.207 14.625,16.743 14.151,18.318 12.709,19.357 11,19.357 9.0005,19.357 7.4277,17.958 7.2515,16.022 7.2458,15.548 7.0937,15.242 6.6195,15.242 6.176,15.242 6.0348,15.581 6.0042,15.944 5.9736,16.306 6.1142,16.936 6.2985,17.412 6.904,18.976 8.3044,20.12 10.019,20.452 10.25,20.496 10.625,20.5 10.998,20.5 11.355,20.5 11.71,20.498 11.938,20.457 15.429,19.824 17.131,16.01 15.176,13.203 14.353,12.022 12.935,11.214 11.478,11.097 L 11.104,11.067 11.514,10.664 C 11.814,10.37 11.944,10.217 11.958,10.09 12.002,9.7011 11.499,9.4597 11.218,9.5056 Z"/>
 <path style="fill:#ececec" d="M 11.218,9.0056 C 10.697,9.0909 9.122,10.578 8.9363,11.156 8.9363,11.484 10.976,13.431 11.335,13.431 11.486,13.431 11.643,13.351 11.735,13.275 11.895,13.14 11.993,12.883 11.952,12.706 11.929,12.607 11.769,12.409 11.497,12.144 L 11.078,11.736 11.438,11.77 C 12.916,11.906 14.199,12.949 14.623,14.357 14.786,14.897 14.787,15.707 14.625,16.243 14.151,17.818 12.709,18.857 11,18.857 9.0005,18.857 7.4277,17.458 7.2515,15.522 7.2458,15.048 7.0937,14.742 6.6195,14.742 6.176,14.742 6.0348,15.081 6.0042,15.444 5.9736,15.806 6.1142,16.436 6.2985,16.912 6.904,18.476 8.3044,19.62 10.019,19.952 10.25,19.996 10.625,20 10.998,20 11.355,20 11.71,19.998 11.938,19.957 15.429,19.324 17.131,15.51 15.176,12.703 14.353,11.522 12.935,10.714 11.478,10.597 L 11.104,10.567 11.514,10.164 C 11.814,9.87 11.944,9.7175 11.958,9.5897 12.002,9.2011 11.499,8.9597 11.218,9.0056 Z"/>
 <path style="fill:#666666" d="M 9,3 H 10 V 5 H 9 Z"/>
 <path style="fill:#666666" d="M 12,3 H 13 V 5 H 12 Z"/>
 <path style="opacity:0.2;fill:#ffffff" d="M 7,2 V 2.5 H 15 V 2 Z"/>
 <path style="opacity:0.2;fill:#ffffff" d="M 4.9609,8 C 4.429,8 4,8.429 4,8.9609 V 9.4609 C 4,8.929 4.429,8.5 4.9609,8.5 H 17.039 C 17.571,8.5 18,8.929 18,9.4609 V 8.9609 C 18,8.429 17.571,8 17.039,8 Z"/>
 <rect style="opacity:0.2" width="1" height=".5" x="9" y="3"/>
 <rect style="opacity:0.2" width="1" height=".5" x="12" y="3"/>
</svg>
